X:202
T:Soldiers Joy,The. RH.202
R:.hornpipe
S:Rev.R.Harrison’s MS,c1815,Cumbria
O:England
A:Temple Sowerby,Cumbria
Z:vmp.Simon Wilson. Review PJH, 2008.
M:C|
L:1/8
Q:1/2=90
K:D
FG|AFDF AFDF|A2d4 cB|AFDF AFDF|G2E4 FG|!
AFDF AFDF|A2d4 fg|afdf gece|d2d4:|!
|:e2|fefg fagf|edcd efge|fefg fagf|edcB A2A2|!
fefg fagf|edcd egfe|afdf gece|d2d4:|

